svgs/sharp-solid/skeleton-ribs.svg

<svg xmlns="http://www.w3.org/2000/svg" viewBox="0 0 640 512"><!--! Font Awesome Pro 6.6.0 by @fontawesome - https://fontawesome.com License - https://fontawesome.com/license (Commercial License) Copyright 2024 Fonticons, Inc. --><path d="M352 32l0-32L288 0l0 32 0 32-64 0-18.1 0-9.3 15.5L224 96c-27.4-16.5-27.4-16.5-27.4-16.5s0 0 0 0s0 0 0 0l-.1 .1-.3 .4-.9 1.5c-.8 1.3-1.9 3.2-3.2 5.6c-2.8 4.9-6.7 11.9-11.3 20.7c-9.3 17.6-21.7 42.4-34.1 71.4c-2.8 6.5-5.6 13.2-8.4 20.2l-.4 .1 .1 .6C116.4 254.4 96 321.6 96 384l0 64 0 32 32 0 64 0 5.8 0 5.4-2L288 446.2l0 33.8 0 32 64 0 0-32 0-33.8L436.8 478l5.4 2 5.8 0 64 0 32 0 0-32 0-64c0-62.4-20.4-129.6-41.9-183.7l.1-.6-.4-.1c-2.8-7-5.6-13.7-8.4-20.2c-12.4-29-24.8-53.8-34.1-71.4c-4.7-8.8-8.6-15.8-11.3-20.7c-1.4-2.4-2.5-4.3-3.2-5.6l-.9-1.5-.3-.4-.1-.1c0 0 0 0 0 0c0 0 0 0 0 0L416 96l27.4-16.5L434.1 64 416 64l-64 0 0-32zm-64 96l0 38.3-72.7 16.2c8.1-17.6 15.8-32.8 22-44.5c1.9-3.7 3.8-7 5.4-10l45.4 0zM186 254.6l102-22.7 0 39.7L171.3 303.4c4.1-16.4 9.2-32.8 14.7-48.8zM160.3 372.7L288 337.9l0 39.9L186.2 416 160 416l0-32c0-3.7 .1-7.5 .3-11.3zM352 377.8l0-38.8 118.8 35.6 9.1 2.7c.1 2.2 .1 4.4 .1 6.6l0 32-26.2 0L352 377.8zm117.8-70.3L352 272.2l0-40.3 102 22.7c6 17.3 11.4 35.2 15.7 53zm-45-125L352 166.3l0-38.3 45.4 0c1.6 3 3.4 6.3 5.4 10c6.2 11.7 13.9 26.9 22 44.5zM0 80l0 32 0 96 0 32L0 480l0 32 64 0 0-32 0-240 0-16 16-12c30.2-22.7 48-58.2 48-96l0-4 0-32L96 80 32 80 0 80zm608 0l-64 0-32 0 0 32 0 4c0 37.8 17.8 73.3 48 96l16 12 0 16 0 240 0 32 64 0 0-32 0-240 0-32 0-96 0-32-32 0z"/></svg>

<svg xmlns="http://www.w3.org/2000/svg" viewBox="0 0 640 512"><!--! Font Awesome Pro 6.4.2 by @fontawesome - https://fontawesome.com License - https://fontawesome.com/license (Commercial License) Copyright 2023 Fonticons, Inc. --><path d="M352 32V0H288V32 64H224 205.9l-9.3 15.5L224 96c-27.4-16.5-27.4-16.5-27.4-16.5l0 0 0 0-.1 .1-.3 .4-.9 1.5c-.8 1.3-1.9 3.2-3.2 5.6c-2.8 4.9-6.7 11.9-11.3 20.7c-9.3 17.6-21.7 42.4-34.1 71.4c-2.8 6.5-5.6 13.2-8.4 20.2l-.4 .1 .1 .6C116.4 254.4 96 321.6 96 384v64 32h32 64 5.8l5.4-2L288 446.2V480v32h64V480 446.2L436.8 478l5.4 2H448h64 32V448 384c0-62.4-20.4-129.6-41.9-183.7l.1-.6-.4-.1c-2.8-7-5.6-13.7-8.4-20.2c-12.4-29-24.8-53.8-34.1-71.4c-4.7-8.8-8.6-15.8-11.3-20.7c-1.4-2.4-2.5-4.3-3.2-5.6l-.9-1.5-.3-.4-.1-.1 0 0 0 0s0 0-27.4 16.5l27.4-16.5L434.1 64H416 352V32zm-64 96v38.3l-72.7 16.2c8.1-17.6 15.8-32.8 22-44.5c1.9-3.7 3.8-7 5.4-10H288zM186 254.6l102-22.7v39.7L171.3 303.4c4.1-16.4 9.2-32.8 14.7-48.8zM160.3 372.7L288 337.9v39.9L186.2 416H160V384c0-3.7 .1-7.5 .3-11.3zM352 377.8V339l118.8 35.6 9.1 2.7c.1 2.2 .1 4.4 .1 6.6v32H453.8L352 377.8zm117.8-70.3L352 272.2V231.9l102 22.7c6 17.3 11.4 35.2 15.7 53zm-45-125L352 166.3V128h45.4c1.6 3 3.4 6.3 5.4 10c6.2 11.7 13.9 26.9 22 44.5zM0 80v32 96 32V480v32H64V480 240 224l16-12c30.2-22.7 48-58.2 48-96v-4V80H96 32 0zm608 0H544 512v32 4c0 37.8 17.8 73.3 48 96l16 12v16V480v32h64V480 240 208 112 80H608z"/></svg>
